X: 1768
T: the Seamen's Club   #2
R: hornpipe
%S: s:3 b:16(5+4+4)
B: O'Neill's 1850 #1768
Z: Bob Safranek, rjs@gsp.org
M: C|
L: 1/8
K: G
D2 \
|: D>GG>B A>GE>G | D>GG>B e2d>B | d2g>f e>dc>B |[1,3 c>Bc>e d>BA>G :|[2,4 d>cA>B G2 :|
|: g>a \
| b>gf>g e>gd>B | c>BA>G F>GA>B | B>GB>d e>ce>g | a>gf>e d2B>A |
| .G(gfg) .e(gfg) | .d(gfg) .b(gfg) | d>gf>e d>cB>A | G2G2 G2 :|
